Newaita-dark/apps/64/openbravo-erp.svg

<svg height="64pt" viewBox="0 0 64 64" width="64pt" xmlns="http://www.w3.org/2000/svg" xmlns:xlink="http://www.w3.org/1999/xlink"><linearGradient id="a" gradientUnits="userSpaceOnUse" x1="31.753048" x2="31.753048" y1="5.79220799994" y2="56.067868"><stop offset="0" stop-color="#4db6ac"/><stop offset="1" stop-color="#26a69a"/></linearGradient><linearGradient id="b"><stop offset="0" stop-opacity=".313726"/><stop offset=".222222" stop-opacity=".27451"/><stop offset="1" stop-opacity="0"/></linearGradient><radialGradient id="c" cx="450.908936" cy="189.579361" gradientTransform="matrix(.00000035 -.156265 -.281277 -.0000002 89.046304 127.190659)" gradientUnits="userSpaceOnUse" r="21.166656" xlink:href="#b"/><radialGradient id="d" cx="450.908936" cy="189.579361" gradientTransform="matrix(-.00000035 .156265 .281277 .0000002 -25.540237 -15.054964)" gradientUnits="userSpaceOnUse" r="21.166656" xlink:href="#b"/><radialGradient id="e" cx="450.908936" cy="189.579361" gradientTransform="matrix(-.00000035 -.156265 .281277 -.0000002 -25.540237 127.190659)" gradientUnits="userSpaceOnUse" r="21.166656" xlink:href="#b"/><radialGradient id="f" cx="450.908936" cy="189.579361" gradientTransform="matrix(.00000035 .156265 -.281277 .0000002 89.0463 -15.054965)" gradientUnits="userSpaceOnUse" r="21.166656" xlink:href="#b"/><linearGradient id="g" gradientTransform="matrix(.0267201 0 0 .125012 24.930772 26.877567)" gradientUnits="userSpaceOnUse" x1="255.323059" x2="255.323044" y1="233.5" y2="254.666656"><stop offset="0" stop-opacity=".27451"/><stop offset="1" stop-opacity="0"/></linearGradient><linearGradient id="h" gradientUnits="userSpaceOnUse" x1="31.753048" x2="31.753048" y1="56.067866" y2="5.79220599994"><stop offset="0" stop-color="#e0e0e0"/><stop offset="1" stop-color="#eee"/></linearGradient><path d="m31.753906 5.792969c13.882813 0 25.136719 11.253906 25.136719 25.136719 0 13.882812-11.253906 25.136718-25.136719 25.136718-13.882812 0-25.140625-11.253906-25.140625-25.136718 0-13.882813 11.257813-25.136719 25.140625-25.136719zm0 0" fill="url(#a)"/><path d="m36.382812 56.066406h5.292969v-2.644531h-5.292969zm0 0" fill="url(#c)"/><path d="m27.121094 56.066406h-5.289063v2.648438h5.289063zm0 0" fill="url(#d)"/><path d="m27.121094 56.066406h-5.289063v-2.644531h5.289063zm0 0" fill="url(#e)"/><path d="m36.382812 56.066406h5.292969v2.648438h-5.292969zm0 0" fill="url(#f)"/><path d="m27.121094 55.40625h9.261718v3.308594h-9.261718zm0 0" fill="url(#g)"/><path d="m31.753906 5.792969c-13.925781 0-25.140625 11.210937-25.140625 25.136719 0 13.925781 11.214844 25.136718 25.140625 25.136718 13.925782 0 25.136719-11.210937 25.136719-25.136718 0-13.925782-11.210937-25.136719-25.136719-25.136719zm0 3.96875c11.726563 0 21.167969 9.441406 21.167969 21.167969 0 11.726562-9.441406 21.167968-21.167969 21.167968-11.726562 0-21.167968-9.441406-21.167968-21.167968 0-7.867188 4.246093-14.703126 10.582031-18.351563v18.351563c0 5.863281 4.722656 10.585937 10.585937 10.585937 5.863282 0 10.582032-4.722656 10.582032-10.585937 0-5.863282-4.71875-10.585938-10.582032-10.585938-2.648437 0-2.648437 3.972656 0 3.972656 3.664063 0 6.613282 2.949219 6.613282 6.613282 0 3.664062-2.949219 6.617187-6.613282 6.617187-3.664062 0-6.617187-2.953125-6.617187-6.617187v-20.121094c2.082031-.679688 4.304687-1.046875 6.617187-1.046875zm0 0" fill="url(#h)"/><path d="m31.753906 56.066406c-13.925781 0-25.140625-11.210937-25.140625-25.136718 0-.082032.003907-.164063.003907-.246094.128906 13.8125 11.292968 24.890625 25.136718 24.890625s25.003906-11.078125 25.136719-24.890625v.246094c0 13.925781-11.210937 25.136718-25.136719 25.136718zm0 0" fill-opacity=".196078"/><path d="m31.753906 5.792969c-13.925781 0-25.140625 11.210937-25.140625 25.136719 0 .082031.003907.164062.003907.246093.128906-13.8125 11.292968-24.890625 25.136718-24.890625s25.003906 11.078125 25.136719 24.890625c0-.082031 0-.164062 0-.246093 0-13.925782-11.210937-25.136719-25.136719-25.136719zm0 0" fill="#fff"/><path d="m960.026483 175.140764c-421.022809 0-760.084936 338.944029-760.084936 759.966837 0 421.022809 339.062127 759.966837 760.084936 759.966837 421.022808 0 759.966837-338.944028 759.966837-759.966837 0-421.022808-338.944029-759.966837-759.966837-759.966837zm0 119.988548c354.533091 0 639.978289 285.445198 639.978289 639.978289 0 354.533092-285.445198 639.978289-639.978289 639.978289-354.533092 0-639.978289-285.445197-639.978289-639.978289 0-237.851314 128.373574-444.524502 319.930095-554.828935v554.828935c0 177.266546 142.781648 320.048194 320.048194 320.048194s319.930095-142.781648 319.930095-320.048194-142.663549-320.048194-319.930095-320.048194c-80.071098 0-80.071098 120.106647 0 120.106647 110.776828 0 199.941547 89.164718 199.941547 199.941547s-89.164719 200.059646-199.941547 200.059646c-110.776829 0-200.059646-89.282817-200.059646-200.059646v-608.327766c62.946748-20.54922 130.145059-31.650523 200.059646-31.650523zm0 0" fill="none" stroke="#333" stroke-linecap="round" stroke-width="11.338583" transform="scale(.0330761)"/><path d="m31.753906 9.460938c-2.3125 0-4.535156.367187-6.617187 1.046874v1.175782c2.082031-.679688 4.304687-1.046875 6.617187-1.046875 11.53125 0 20.851563 9.125 21.160156 20.582031.003907-.195312.007813-.394531.007813-.589844 0-11.726562-9.441406-21.167968-21.167969-21.167968zm-10.585937 2.816406c-6.335938 3.648437-10.582031 10.484375-10.582031 18.351562 0 .199219 0 .398438.007812.597656.203125-7.621093 4.394531-14.214843 10.574219-17.777343zm8.679687 10.339844c-.316406 1.144531.316406 2.570312 1.90625 2.570312 3.464844 0 6.292969 2.640625 6.589844 6.03125.015625-.195312.023438-.390625.023438-.589844 0-3.664062-2.949219-6.613281-6.613282-6.613281-1.058594 0-1.695312-.636719-1.90625-1.398437zm-8.679687 8.011718v1.175782c0 5.863281 4.722656 10.585937 10.585937 10.585937 5.863282 0 10.582032-4.722656 10.582032-10.585937 0-.195313-.003907-.394532-.015626-.585938-.300781 5.585938-4.902343 9.996094-10.566406 9.996094-5.863281 0-10.585937-4.722656-10.585937-10.585938zm-14.546875.589844v.15625c.234375 13.71875 11.355468 24.691406 25.132812 24.691406s24.898438-10.972656 25.132813-24.691406c0-.054688 0-.105469-.003907-.15625-.308593 13.652344-11.398437 24.546875-25.128906 24.546875-13.730468 0-24.820312-10.894531-25.132812-24.546875zm0 0" fill-opacity=".235294"/></svg>

<?xml version="1.0" encoding="UTF-8"?>
<svg xmlns="http://www.w3.org/2000/svg" xmlns:xlink="http://www.w3.org/1999/xlink" width="64pt" height="64pt" viewBox="0 0 64 64" version="1.1">
<defs>
<linearGradient id="linear0" gradientUnits="userSpaceOnUse" x1="254" y1="-168.666672" x2="254" y2="233.5" gradientTransform="matrix(0.125012,0,0,0.125012,0.000000328156,26.877566)">
<stop offset="0" style="stop-color:rgb(30.19608%,71.372551%,67.450982%);stop-opacity:1;"/>
<stop offset="1" style="stop-color:rgb(14.901961%,65.098041%,60.392159%);stop-opacity:1;"/>
</linearGradient>
<radialGradient id="radial0" gradientUnits="userSpaceOnUse" cx="450.908936" cy="189.579361" fx="450.908936" fy="189.579361" r="21.166656" gradientTransform="matrix(0.000000348341,-0.156265,-0.281277,-0.000000203077,89.046304,127.190659)">
<stop offset="0" style="stop-color:rgb(0%,0%,0%);stop-opacity:0.313726;"/>
<stop offset="0.222222" style="stop-color:rgb(0%,0%,0%);stop-opacity:0.27451;"/>
<stop offset="1" style="stop-color:rgb(0%,0%,0%);stop-opacity:0;"/>
</radialGradient>
<radialGradient id="radial1" gradientUnits="userSpaceOnUse" cx="450.908936" cy="189.579361" fx="450.908936" fy="189.579361" r="21.166656" gradientTransform="matrix(-0.000000348341,0.156265,0.281277,0.000000203077,-25.540237,-15.054964)">
<stop offset="0" style="stop-color:rgb(0%,0%,0%);stop-opacity:0.313726;"/>
<stop offset="0.222222" style="stop-color:rgb(0%,0%,0%);stop-opacity:0.27451;"/>
<stop offset="1" style="stop-color:rgb(0%,0%,0%);stop-opacity:0;"/>
</radialGradient>
<radialGradient id="radial2" gradientUnits="userSpaceOnUse" cx="450.908936" cy="189.579361" fx="450.908936" fy="189.579361" r="21.166656" gradientTransform="matrix(-0.000000348341,-0.156265,0.281277,-0.000000203077,-25.540237,127.190659)">
<stop offset="0" style="stop-color:rgb(0%,0%,0%);stop-opacity:0.313726;"/>
<stop offset="0.222222" style="stop-color:rgb(0%,0%,0%);stop-opacity:0.27451;"/>
<stop offset="1" style="stop-color:rgb(0%,0%,0%);stop-opacity:0;"/>
</radialGradient>
<radialGradient id="radial3" gradientUnits="userSpaceOnUse" cx="450.908936" cy="189.579361" fx="450.908936" fy="189.579361" r="21.166656" gradientTransform="matrix(0.000000348341,0.156265,-0.281277,0.000000203077,89.0463,-15.054965)">
<stop offset="0" style="stop-color:rgb(0%,0%,0%);stop-opacity:0.313726;"/>
<stop offset="0.222222" style="stop-color:rgb(0%,0%,0%);stop-opacity:0.27451;"/>
<stop offset="1" style="stop-color:rgb(0%,0%,0%);stop-opacity:0;"/>
</radialGradient>
<linearGradient id="linear1" gradientUnits="userSpaceOnUse" x1="255.323059" y1="233.5" x2="255.323044" y2="254.666656" gradientTransform="matrix(0.0267201,0,0,0.125012,24.930772,26.877567)">
<stop offset="0" style="stop-color:rgb(0%,0%,0%);stop-opacity:0.27451;"/>
<stop offset="1" style="stop-color:rgb(0%,0%,0%);stop-opacity:0;"/>
</linearGradient>
<linearGradient id="linear2" gradientUnits="userSpaceOnUse" x1="254" y1="233.5" x2="254" y2="-168.666672" gradientTransform="matrix(0.125012,0,0,0.125012,0,26.877564)">
<stop offset="0" style="stop-color:rgb(87.843138%,87.843138%,87.843138%);stop-opacity:1;"/>
<stop offset="1" style="stop-color:rgb(93.333334%,93.333334%,93.333334%);stop-opacity:1;"/>
</linearGradient>
</defs>
<g id="surface1">
<path style=" stroke:none;fill-rule:nonzero;fill:url(#linear0);" d="M 31.753906 5.792969 C 45.636719 5.792969 56.890625 17.046875 56.890625 30.929688 C 56.890625 44.8125 45.636719 56.066406 31.753906 56.066406 C 17.871094 56.066406 6.613281 44.8125 6.613281 30.929688 C 6.613281 17.046875 17.871094 5.792969 31.753906 5.792969 Z M 31.753906 5.792969 "/>
<path style=" stroke:none;fill-rule:nonzero;fill:url(#radial0);" d="M 36.382812 56.066406 L 41.675781 56.066406 L 41.675781 53.421875 L 36.382812 53.421875 Z M 36.382812 56.066406 "/>
<path style=" stroke:none;fill-rule:nonzero;fill:url(#radial1);" d="M 27.121094 56.066406 L 21.832031 56.066406 L 21.832031 58.714844 L 27.121094 58.714844 Z M 27.121094 56.066406 "/>
<path style=" stroke:none;fill-rule:nonzero;fill:url(#radial2);" d="M 27.121094 56.066406 L 21.832031 56.066406 L 21.832031 53.421875 L 27.121094 53.421875 Z M 27.121094 56.066406 "/>
<path style=" stroke:none;fill-rule:nonzero;fill:url(#radial3);" d="M 36.382812 56.066406 L 41.675781 56.066406 L 41.675781 58.714844 L 36.382812 58.714844 Z M 36.382812 56.066406 "/>
<path style=" stroke:none;fill-rule:nonzero;fill:url(#linear1);" d="M 27.121094 55.40625 L 36.382812 55.40625 L 36.382812 58.714844 L 27.121094 58.714844 Z M 27.121094 55.40625 "/>
<path style=" stroke:none;fill-rule:nonzero;fill:url(#linear2);" d="M 31.753906 5.792969 C 17.828125 5.792969 6.613281 17.003906 6.613281 30.929688 C 6.613281 44.855469 17.828125 56.066406 31.753906 56.066406 C 45.679688 56.066406 56.890625 44.855469 56.890625 30.929688 C 56.890625 17.003906 45.679688 5.792969 31.753906 5.792969 Z M 31.753906 9.761719 C 43.480469 9.761719 52.921875 19.203125 52.921875 30.929688 C 52.921875 42.65625 43.480469 52.097656 31.753906 52.097656 C 20.027344 52.097656 10.585938 42.65625 10.585938 30.929688 C 10.585938 23.0625 14.832031 16.226562 21.167969 12.578125 L 21.167969 30.929688 C 21.167969 36.792969 25.890625 41.515625 31.753906 41.515625 C 37.617188 41.515625 42.335938 36.792969 42.335938 30.929688 C 42.335938 25.066406 37.617188 20.34375 31.753906 20.34375 C 29.105469 20.34375 29.105469 24.316406 31.753906 24.316406 C 35.417969 24.316406 38.367188 27.265625 38.367188 30.929688 C 38.367188 34.59375 35.417969 37.546875 31.753906 37.546875 C 28.089844 37.546875 25.136719 34.59375 25.136719 30.929688 L 25.136719 10.808594 C 27.21875 10.128906 29.441406 9.761719 31.753906 9.761719 Z M 31.753906 9.761719 "/>
<path style=" stroke:none;fill-rule:nonzero;fill:rgb(0%,0%,0%);fill-opacity:0.196078;" d="M 31.753906 56.066406 C 17.828125 56.066406 6.613281 44.855469 6.613281 30.929688 C 6.613281 30.847656 6.617188 30.765625 6.617188 30.683594 C 6.746094 44.496094 17.910156 55.574219 31.753906 55.574219 C 45.597656 55.574219 56.757812 44.496094 56.890625 30.683594 C 56.890625 30.765625 56.890625 30.847656 56.890625 30.929688 C 56.890625 44.855469 45.679688 56.066406 31.753906 56.066406 Z M 31.753906 56.066406 "/>
<path style=" stroke:none;fill-rule:nonzero;fill:rgb(100%,100%,100%);fill-opacity:1;" d="M 31.753906 5.792969 C 17.828125 5.792969 6.613281 17.003906 6.613281 30.929688 C 6.613281 31.011719 6.617188 31.09375 6.617188 31.175781 C 6.746094 17.363281 17.910156 6.285156 31.753906 6.285156 C 45.597656 6.285156 56.757812 17.363281 56.890625 31.175781 C 56.890625 31.09375 56.890625 31.011719 56.890625 30.929688 C 56.890625 17.003906 45.679688 5.792969 31.753906 5.792969 Z M 31.753906 5.792969 "/>
<path style="fill:none;stroke-width:11.338583;stroke-linecap:round;stroke-linejoin:miter;stroke:rgb(20%,20%,20%);stroke-opacity:1;stroke-miterlimit:4;" d="M 960.026483 175.140764 C 539.003674 175.140764 199.941547 514.084793 199.941547 935.107601 C 199.941547 1356.13041 539.003674 1695.074438 960.026483 1695.074438 C 1381.049291 1695.074438 1719.99332 1356.13041 1719.99332 935.107601 C 1719.99332 514.084793 1381.049291 175.140764 960.026483 175.140764 Z M 960.026483 295.129312 C 1314.559574 295.129312 1600.004772 580.57451 1600.004772 935.107601 C 1600.004772 1289.640693 1314.559574 1575.08589 960.026483 1575.08589 C 605.493391 1575.08589 320.048194 1289.640693 320.048194 935.107601 C 320.048194 697.256287 448.421768 490.583099 639.978289 380.278666 L 639.978289 935.107601 C 639.978289 1112.374147 782.759937 1255.155795 960.026483 1255.155795 C 1137.293029 1255.155795 1279.956578 1112.374147 1279.956578 935.107601 C 1279.956578 757.841055 1137.293029 615.059407 960.026483 615.059407 C 879.955385 615.059407 879.955385 735.166054 960.026483 735.166054 C 1070.803311 735.166054 1159.96803 824.330772 1159.96803 935.107601 C 1159.96803 1045.88443 1070.803311 1135.167247 960.026483 1135.167247 C 849.249654 1135.167247 759.966837 1045.88443 759.966837 935.107601 L 759.966837 326.779835 C 822.913585 306.230615 890.111896 295.129312 960.026483 295.129312 Z M 960.026483 295.129312 " transform="matrix(0.0330761,0,0,0.0330761,0,0)"/>
<path style=" stroke:none;fill-rule:nonzero;fill:rgb(0%,0%,0%);fill-opacity:0.235294;" d="M 31.753906 9.460938 C 29.441406 9.460938 27.21875 9.828125 25.136719 10.507812 L 25.136719 11.683594 C 27.21875 11.003906 29.441406 10.636719 31.753906 10.636719 C 43.285156 10.636719 52.605469 19.761719 52.914062 31.21875 C 52.917969 31.023438 52.921875 30.824219 52.921875 30.628906 C 52.921875 18.902344 43.480469 9.460938 31.753906 9.460938 Z M 21.167969 12.277344 C 14.832031 15.925781 10.585938 22.761719 10.585938 30.628906 C 10.585938 30.828125 10.585938 31.027344 10.59375 31.226562 C 10.796875 23.605469 14.988281 17.011719 21.167969 13.449219 Z M 29.847656 22.617188 C 29.53125 23.761719 30.164062 25.1875 31.753906 25.1875 C 35.21875 25.1875 38.046875 27.828125 38.34375 31.21875 C 38.359375 31.023438 38.367188 30.828125 38.367188 30.628906 C 38.367188 26.964844 35.417969 24.015625 31.753906 24.015625 C 30.695312 24.015625 30.058594 23.378906 29.847656 22.617188 Z M 21.167969 30.628906 L 21.167969 31.804688 C 21.167969 37.667969 25.890625 42.390625 31.753906 42.390625 C 37.617188 42.390625 42.335938 37.667969 42.335938 31.804688 C 42.335938 31.609375 42.332031 31.410156 42.320312 31.21875 C 42.019531 36.804688 37.417969 41.214844 31.753906 41.214844 C 25.890625 41.214844 21.167969 36.492188 21.167969 30.628906 Z M 6.621094 31.21875 C 6.621094 31.269531 6.621094 31.320312 6.621094 31.375 C 6.855469 45.09375 17.976562 56.066406 31.753906 56.066406 C 45.53125 56.066406 56.652344 45.09375 56.886719 31.375 C 56.886719 31.320312 56.886719 31.269531 56.882812 31.21875 C 56.574219 44.871094 45.484375 55.765625 31.753906 55.765625 C 18.023438 55.765625 6.933594 44.871094 6.621094 31.21875 Z M 6.621094 31.21875 "/>
</g>
</svg>
